X: 3946
T: Blackbird, The
R: hornpipe
M: 4/4
K: Dmixolydian
d>c|:(3Bcd B>d c>dB>c|A>GF>G A>B (3cBA|~d3 e d>cA>F|G>BA>F D2 D>E|
(3FED F>G A2 {fa}f>e|d2 {e}d>^c d>=cA>F|[M:3/2]G>BA>F D2 D2 D4:|
[M:4/4]|:d>e|f>d {e}(3d^cd f>df>g|a>ba>g f>g (3agf|g3 f g>ba>g|f>gf>e d2 d>e|
f>d {e}(3d^cd f>df>g|a3 g f>ga>f|g>ag>f d2 d2|d>ef>g ~a3 g|
f>ga>f ~g3 e|(3fga e^c d>=cA>G|F>GA>B d>ef>g|a4 A3G|
F>GA>B ~c3 e|d>cA>F G>BA>F|D2 D2 D3:|

